!!!COM: Robert Schumann
!!!CNT: Deutsch
!!!TXO: Deutsch
!!!OTL: Die rote Hanne
!!!LYR: Chamisso
!!!OPR: Drei Gesa2nge
!!!OPS: Op.31
!!!ONM: No. 3
!!!ENC: Ben Fuhrman
!!!YOR: Schumann Lieder - Max Friedlaender, ed.,
!!!YOR: New York: C. F. Peters, Vol. 2
!!!ODT: 1840/
!!NB: Vocal melody and text only encoded.
!!NB: First instance of melodic material only encoded.
**kern	**silbe
*clefG2	*
*k[b-e-]	*
*M4/4	*
!!created: 06/26/06 10:40
!!proofed and posted: 06/26/06 10:40
!!edit time: 135 minutes
=4	=4
2r	.
4r	.
{4f	{Den
=5	=5
4.b-	S2aug-
8b-	-ling
(8b-	an
8a)	|
(8g	der
8a)	|
=6	=6
2b-}	Brust}
4r	.
{4f	{den
=7	=7
4b-	zwei-
8b-	-ten
8b-	der
8b-	Kna-
8a	-ben
8g	auf
8a	dem
=8	=8
4b-	Ru2k-
4f}	-ken,}
{4.dd	{fu2hrt
8cc	sie
=9	=9
8cc	an
8f	der
8f	Hand
8f	den
4.b-	Erst-
8a	-ge-
=10	=10
4a	-bor'-
4cc}	-nen,}
8r	.
{8dd	{der
8dd	fast
8dd	ent-
=11	=11
4cc	-klei-
4f	-det,
4.b-	bar-
8a	-fuss,
=12	=12
(8a	friert.
4.cc)}	|}
4r	.
{4f	{Den
=13	=13
4.b-	Va-
8b-	-ter
8a	ha-
8a	-ben
8a	sie
8a	ge-
=14	=14
4g	-fan-
4g}	-gen,}
8r	.
{8e-	{er
8e-	ku2hlt
8e-	im
=15	=15
4.a	Ker-
8a	-ker
4.g	sei-
8g	-nen
=16	=16
[2f#	Mut.
(8f#]	|
8fn)}	|}
{4f	{Sei
=17	=17
4.B-	Gott
8B-	du
4.d	mit
8d	der
=18	=18
4.e-	ro-
8e-	-ten
4f	Han-
8f}	-ne!}
{8f	{der
=19	=19
4.g	Wild-
8g	-dieb
4.c	sitzt
8c	in
=20	=20
4.f	sich'-
8f	-rer
[2B-	Hut.
=21	=21
1B-]}	|}
!! rest to measure 24
=24	=24
2r	.
8r	.
{8f	{Ich
8f	sah
8f	sie
=25	=25
4.b-	oft
8b-	in
(8b-	bes
8a)	|
(8g	-sern
8a)	|
=26	=26
4b-	Ta-
4b-}	-gen,}
4r	.
{4f	{Schul-
=27	=27
4.b-	-mei-
8b-	-sters
(8b-	lie-
8a	|
8g)	|
8a	-bes
=28	=28
8.cc	To2ch-
16b-	-ter-
4b-}	-lein;}
8r	.
{8b-	{sie
8b-	spann
8dd	und
=29	=29
4.cc	sang
8f	und
4.b-	las
8a	und
=30	=30
4a	na2h-
4cc}	-te,}
4r	.
{(8b-	{ein
8d)	|
=31	=31
8cc	her-
8f	-zig
8f	Kind
8b-	und
4.b-	schmuck
8a	und
=32	=32
(8a	fein
4.cc)}	|}
4r	.
{4f	{beim
=33	=33
4.b-	Sonn-
8b-	-tags-
8a	-tanz
8a	im
8a	Kreis
8a	der
=34	=34
4g	Lin-
4g}	-den,}
8r	.
{8e-	{wie
8e-	war
8e-	sie
=35	=35
4.a	froh
8a	und
4.g	wohl-
8g	-ge-
=36	=36
[2f#	mut!
(8f#]	|
8fn)}	|}
{4f	{Sei
=37	=37
4.B-	Gott
8B-	du
4.d	mit
8d	der
=38	=38
4.e-	ro-
8e-	-ten
4f	Ha-
8f}	-ne!}
{8f	{der
=39	=39
4.g	Wild-
8g	-dieb
4.c	sitzt
8c	in
=40	=40
4.f	sich'-
8f	-rer
[2B-	Hut.
=41	=41
1B-]}	|}
!! rest to measure 44
=44	=44
2r	.
8r	.
{8f	{Ein
8f	jun-
8f	-ger
=45	=45
4.b-	rei-
8b-	-cher
(8b-	hu2b-
8a	|
8g)	|
8a	-scher
=46	=46
4b-	Pa2ch-
4b-}	-ter}
4r	.
{4f	{ver-
=47	=47
4.b-	-sprach
8b-	ihr
8b-	einst
8a	ein
8g	bess'
8a	-res
=48	=48
2b-}	Glu2ck;}
4r	.
{(8b-	{ihr
8dd)	|
=49	=49
4.cc	ro-
8f	-tes
8b-	Haar,
8b-	das
8.b-	ward
16a	ver-
=50	=50
4a	-spot-
4cc}	-tet,}
4r	.
{(8b-	{der
8dd)	|
=51	=51
4.cc	rei-
8f	-che
8b-	Frei-
8b-	-er
8.b-	trat
16a	zu
=52	=52
4cc}	-ru2ck;}
4r	.
8r	.
{8f	{es
8f	ka-
8f	-men
=53	=53
4.b-	and-
8b-	-re,
4.a	gin
8a	-gen
=54	=54
4g	wie-
4g}	-der,}
4r	.
{4e-	{sie
=55	=55
8a	hat-
8a	-te
8a	ja
8a	kein
4.g	Hei-
8g	-rats-
=56	=56
[2f#	-gut.
(8f#]	|
8fn)}	|}
{4f	{Sei
=57	=57
4.B-	Gott
8B-	du
4.d	mit
8d	der
=58	=58
4.e-	ro-
8e-	-ten
4f	Han-
8f}	-ne!}
8f	der
=59	=59
4.g	Wild-
8g	-dieb
4.c	sitzt
8c	in
=60	=60
4.f	sich'-
8f	-rer
[2B-	Hut.
=61	=61
1B-]}	|}
!! rest to measure 64
=64	=64
2r	.
4r	.
{4d	{Ein
=65	=65
4.g	Tau-
8g	-ge-
4g	-nichts
4g	war
=66	=66
4.d	schnell
8d	ent-
4d	-schlos-
8d}	-sen:}
{8d	{ich
=67	=67
4g	nehm'
8g	dich
8g	zum
4c	We-
4c}	-be,}
=68	=68
{4d	{blond
8d	o-
8d	-der
4G	rot;
4d	drei
=69	=69
4.g	Bu2ch-
8g	-sen
4g	hab'
4g	ich,
=70	=70
(8g	weiss
4d)	|
8d	die
4d	Schli-
8d}	-che,}
{8d	{der
=71	=71
4.g	Fo2r-
8g	-ster
4.c	macht
8c	mir
=72	=72
4.d	kei-
8d	-ne
4.G}	Not;}
{8G	{den
=73	=73
4.a-	Schwarz-
8a-	-rock
4a-	will
4a-	ich
=74	=74
4.g	auch
8g	be-
4g	-zah-
8g}	-len,}
{8g	{den
=75	=75
4.f	Spru2ch-
8f	-lein
4.e-	uns
8e-	zu-
=76	=76
4d	-sam-
4G	-men
4c}	tut.}
{4f	{Sei
=77	=77
4.B-	Gott
8B-	du
4.d	mit
8d	der
=78	=78
4.e-	ro-
8e-	-ten
4f	Han-
8f}	-ne!}
{8f	{der
=79	=79
4.g	Wild-
8g	-dieb
4.c	sitzt
8c	in
=80	=80
4.f	sich'-
8f	-rer
[2B-	Hut.
=81	=18
1B-]}	|}
!! rest to measure 84
=84	=84
2r	.
8r	.
{8f	{Sie
8f	sprach
8f	nicht
=85	=85
4.b-	nein,
8b-	mit
(8b-	sanf-
8a)	|
(8g	-ter
8a)	|
=86	=86
4b-	Lock-
4b-}	-ung}
8r	.
{8f	{ge-
8f	-got
8f	Na-
=87	=87
4.b-	tur
8b-	in
(8b-	ih-
8a)	|
(8g	-rer
8a)	|
=88	=88
2b-}	Brust,}
4r	.
{(8b-	{und
8dd)	|
=89	=89
4.cc	drei-
8f	-mal
8b-	ward
8b-	al-
8.b-	-lein
16a	im
=90	=90
4a	Wal-
4cc}	-de}
4r	.
{(8b-	{sie
8dd)	|
=91	=91
8cc	Mut-
8f	-ter
8f	un-
8f	-ter
4.b-	bitt'-
8a	-rer
=92	=92
(8a	Lust.
4.cc)}	|}
8r	.
{8f	{Die
8f	Kin-
8f	-der
=93	=93
4.b-	trei-
8b-	-ben
4.a	und
8a	ge-
=94	=94
4g	-dei-
4g}	-hen,}
4r	.
{4e-	{ein
=95	=95
4.a	blu2-
8a	-hend
8g	frisch
8g	ge-
8g	sun-
8g	-des
=96	=96
[2f#	Blut.
(8f#]	|
8fn)}	|}
{4f	{Sei
=97	=97
4.B-	Gott
8B-	du
4.d	mit
8d	der
=98	=98
4.e-	ro-
8e-	-ten
4f	Han-
8f}	-ne!}
{8f	{der
=99	=99
4.g	Wild-
8g	-dieb
4.c	sitzt
8c	in
=100	=100
4.f	sich'-
8f	-rer
[2B-	Hut.
=101	=101
1B-]}	|}
!! rest to measure 104
=104	=104
2r	.
4r	.
{4B-	{Des
=105	=105
4.a-	treu-
8a-	-en
4.g	Wei-
8g	-bes
=106	=106
4.f	na2cht'-
8f	gen
4en	Jam-
8en	-mer
8en	er-
=107	=107
4.en	-hel-
8en	-let-
(4en	noch
8f)	|
8g	ein
=108	=108
4.b-	mil-
8a	-der
4a}	Schein.}
8r	.
{8a	{Sie
=109	=109
4a-	la2-
4a-}	-chelt:}
4r	.
{8g	{ih-
8g	-re
=110	=110
4.f	Klei-
8f	-nen
4en	wer-
4en	-den
=111	=111
4en	schwarz-
8en	-lok-
8en	-kig
(4en	wie
8f)	|
8g	der
=112	=112
4.b-	Va-
8a	-ter
4a}	sein;}
8r	.
{8a	{sie
=113	=113
4a-	la2-
4a-}	-chelt:}
4r	.
{8g	{ach,
8g	aus
=114	=114
4f	ih-
4f	-rem
4.en	La2-
8en	-cheln
=115	=115
4en	shco2pft
8en	der
8en	Ge-
(4en	-fang'-
8f)	|
8g	-ne
=116	=116
4.b-	fri-
8a	-schen
4a}	Mut.}
{4f	{Sei
=117	=117
4.B-	Gott
8B-	du
4.d	mit
8d	der
=118	=118
4.e-	ro-
8e-	-ten
4f	Han-
8f}	-ne!}
{8f	{der
=119	=119
4.g	Wild-
8g	-dieb
4.c	sitzt
8c	in
=120	=120
4.f	sich'-
8f	-rer
[2B-	Hut.
=121	=121
1B-_	|
=122	=122
4B-]}	|}
4r	.
2r	.
==	==
*-	*-
